images-ng/colibre/pasteCol.svg

<?xml version="1.0" encoding="UTF-8" standalone="no"?>
<svg
   version="1.1"
   viewBox="0 0 24 24"
   id="svg12"
   sodipodi:docname="lc_pasteCol.svg"
   xml:space="preserve"
   inkscape:version="1.2.1 (9c6d41e410, 2022-07-14)"
   xmlns:inkscape="http://www.inkscape.org/namespaces/inkscape"
   xmlns:sodipodi="http://sodipodi.sourceforge.net/DTD/sodipodi-0.dtd"
   xmlns="http://www.w3.org/2000/svg"
   xmlns:svg="http://www.w3.org/2000/svg"><defs
     id="defs16" /><sodipodi:namedview
     id="namedview14"
     pagecolor="#ffffff"
     bordercolor="#000000"
     borderopacity="0.25"
     inkscape:showpageshadow="2"
     inkscape:pageopacity="0.0"
     inkscape:pagecheckerboard="0"
     inkscape:deskcolor="#d1d1d1"
     showgrid="true"
     inkscape:zoom="16.469695"
     inkscape:cx="26.988963"
     inkscape:cy="13.54002"
     inkscape:window-width="1920"
     inkscape:window-height="1031"
     inkscape:window-x="0"
     inkscape:window-y="0"
     inkscape:window-maximized="1"
     inkscape:current-layer="svg12"><inkscape:grid
       type="xygrid"
       id="grid490" /></sodipodi:namedview><path
     d="m3 2h19v19h-19z"
     fill="#fafafa"
     id="path2" /><path
     id="path4"
     d="M 8 2 L 8 10 C 8 8.9092983 8.9092981 8 10 8 L 11 8 L 12 8 L 12 2 L 8 2 z "
     style="fill:#a1ddaa" /><path
     id="path6"
     d="M 7 2 L 7 6 L 3 6 L 3 7 L 7 7 L 7 11 L 3 11 L 3 12 L 7 12 L 7 16 L 3 16 L 3 17 L 7 17 L 7 21 L 8 21 L 8 17 L 8 16 L 8 12 L 8 11 L 8 10 L 8 7 L 12 7 L 12 8 L 13 8 L 13 7 L 14.042969 7 C 14.537288 6.4072011 15.20318 6 16 6 L 13 6 L 13 2 L 12 2 L 12 6 L 8 6 L 8 2 L 7 2 z M 16 6 C 16.819655 6 17.501794 6.4301535 18 7.0507812 L 18 7 L 22 7 L 22 6 L 18 6 L 18 2 L 17 2 L 17 6 L 16 6 z "
     style="fill:#797774" /><path
     id="path8"
     d="M 3 1 C 2.4460006 1 2 1.4460006 2 2 L 2 21 C 2 21.553999 2.4460006 22 3 22 L 8 22 L 8 21 L 3 21 L 3 2 L 22 2 L 22 8 C 22.36286 8 22.704098 8.1028658 23 8.2773438 L 23 2 C 23 1.4460006 22.553999 1 22 1 L 3 1 z "
     style="fill:#3a3a38" /><path
     id="path10"
     d="M 7 1 L 7 22 L 8 22 L 8 21 L 8 17 L 8 16 L 8 12 L 8 11 L 8 10 L 8 7 L 12 7 L 12 8 L 13 8 L 13 1 L 7 1 z M 8 2 L 12 2 L 12 6 L 8 6 L 8 2 z "
     style="fill:#18ab50" /><g
     id="g363"
     transform="translate(-18.089446,3.9230769)"><path
       d="m 28.089446,5.0769231 c -0.554,0 -1,0.446 -1,1 V 18.076923 c 0,0.554 0.446,1 1,1 h 12 c 0.554,0 1,-0.446 1,-1 V 6.0769231 c 0,-0.554 -0.446,-1 -1,-1 h -1 v 1 h 1 V 18.076923 h -12 V 6.0769231 h 1 v -1 z"
       fill="#ed8733"
       id="path325" /><path
       d="M 28.089446,6.0769231 V 18.076923 h 12 V 6.0769231 h -1 v 1 9.9999999 h -10 v -9.9999999 -1 z"
       fill="#f8db8f"
       id="path327" /><path
       d="m 29.089446,7.0769231 v 9.9999999 h 10 V 7.0769231 c 0,0.554 -0.446,1 -1,1 h -8 c -0.554,0 -1,-0.446 -1,-1 z"
       fill="#fafafa"
       stroke-width="1.11803"
       id="path329" /><path
       d="m 34.089446,3.0769231 a 2,2 0 0 0 -2,2 h -2 v 2 h 4 4 v -2 h -2 a 2,2 0 0 0 -2,-2 z m 0,1 a 1,1 0 0 1 1,1 1,1 0 0 1 -1,1 1,1 0 0 1 -1,-1 1,1 0 0 1 0.0059,-0.099609 1,1 0 0 1 0.994141,-0.9003906 z"
       id="path331"
       style="fill:#3a3a38" /></g></svg>

<svg version="1.1" viewBox="0 0 24 24" xmlns="http://www.w3.org/2000/svg"><path d="m3 2h19v19h-19z" fill="#fafafa"/><path d="m8 2v8c0-1.0907 0.9093-2 2-2h1 1v-6h-4z" fill="#a1ddaa"/><path d="m7 2v4h-4v1h4v4h-4v1h4v4h-4v1h4v4h1v-4-1-4-1-1-3h4v1h1v-1h1.043c0.49432-0.5928 1.1602-1 1.957-1h-3v-4h-1v4h-4v-4h-1zm9 4c0.81966 0 1.5018 0.43015 2 1.0508v-0.050781h4v-1h-4v-4h-1v4h-1z" fill="#797774"/><path d="m3 1c-0.554 0-1 0.446-1 1v19c0 0.554 0.446 1 1 1h5v-1h-5v-19h19v6c0.36286 0 0.7041 0.10287 1 0.27734v-6.2773c0-0.554-0.446-1-1-1h-19z" fill="#3a3a38"/><path d="m7 1v21h1v-1-4-1-4-1-1-3h4v1h1v-7h-6zm1 1h4v4h-4v-4z" fill="#18ab50"/><g transform="translate(-18.089 3.9231)"><path d="m28.089 5.0769c-0.554 0-1 0.446-1 1v12c0 0.554 0.446 1 1 1h12c0.554 0 1-0.446 1-1v-12c0-0.554-0.446-1-1-1h-1v1h1v12h-12v-12h1v-1z" fill="#ed8733"/><path d="m28.089 6.0769v12h12v-12h-1v11h-10v-11z" fill="#f8db8f"/><path d="m29.089 7.0769v10h10v-10c0 0.554-0.446 1-1 1h-8c-0.554 0-1-0.446-1-1z" fill="#fafafa" stroke-width="1.118"/><path d="m34.089 3.0769a2 2 0 0 0-2 2h-2v2h8v-2h-2a2 2 0 0 0-2-2zm0 1a1 1 0 0 1 1 1 1 1 0 0 1-1 1 1 1 0 0 1-1-1 1 1 0 0 1 0.0059-0.099609 1 1 0 0 1 0.99414-0.90039z" fill="#3a3a38"/></g></svg>
